X:5361
T:Flower of Edinbourough. JC.138
M:C
L:1/8
Q:180
S:John Clare,Poet,Helpstone (1793-1864)
R:Reel
O:England
A:Northamptonshire
N:
Z:P Headford
K:G
((3GFE)|DEFDG2GA|BGBd cBAG|(FG)(EF) CEGG|AF dFE2(EF)|!
DEFDG2(GA)|BGBd efge|dcBA GFGA|B2G2G2:|!
|d2|gfga gbag|fefg fagf|edef gfed|d2e2e2g2|!
dBGBd2cB|cdefg2(fe)|dcBA GFGA|B2G2G2|]
